img/image/copyright.svg

<svg width="10" height="9" viewBox="0 0 10 9" fill="none" xmlns="http://www.w3.org/2000/svg">
<path d="M4.99219 8.95923C4.35547 8.95923 3.76758 8.84985 3.22852 8.6311C2.69336 8.41235 2.22656 8.10571 1.82812 7.71118C1.43359 7.31665 1.12695 6.85181 0.908203 6.31665C0.693359 5.77759 0.585938 5.19165 0.585938 4.55884C0.585938 3.92212 0.695312 3.33618 0.914062 2.80103C1.13281 2.26196 1.43945 1.79517 1.83398 1.40063C2.23242 1.0061 2.69922 0.699463 3.23438 0.480713C3.77344 0.261963 4.35938 0.152588 4.99219 0.152588C5.60547 0.152588 6.17773 0.263916 6.70898 0.486572C7.24414 0.705322 7.71289 1.01392 8.11523 1.41235C8.51758 1.80688 8.83203 2.27173 9.05859 2.80688C9.28516 3.34204 9.39844 3.92603 9.39844 4.55884C9.39844 5.19165 9.28906 5.77759 9.07031 6.31665C8.85156 6.85181 8.54297 7.31665 8.14453 7.71118C7.75 8.10571 7.2832 8.41235 6.74414 8.6311C6.20898 8.84985 5.625 8.95923 4.99219 8.95923ZM5.17969 7.23657C4.39062 7.23657 3.79688 6.99438 3.39844 6.51001C3 6.02173 2.80078 5.37134 2.80078 4.55884C2.80078 4.03931 2.89453 3.58032 3.08203 3.18188C3.27344 2.77954 3.54883 2.46509 3.9082 2.23853C4.27148 2.00806 4.71094 1.89282 5.22656 1.89282C5.48438 1.89282 5.74023 1.92407 5.99414 1.98657C6.24805 2.04907 6.48633 2.13696 6.70898 2.25024L6.38086 2.92993C6.18555 2.82837 5.99219 2.7522 5.80078 2.70142C5.60938 2.64673 5.42188 2.61938 5.23828 2.61938C4.74219 2.61938 4.35742 2.79321 4.08398 3.14087C3.81055 3.48462 3.67383 3.95728 3.67383 4.55884C3.67383 5.18384 3.79688 5.66431 4.04297 6.00024C4.29297 6.33618 4.68555 6.50415 5.2207 6.50415C5.41602 6.50415 5.625 6.47876 5.84766 6.42798C6.07422 6.3772 6.28906 6.31079 6.49219 6.22876V6.9436C6.30078 7.02954 6.10352 7.09985 5.90039 7.15454C5.69727 7.20923 5.45703 7.23657 5.17969 7.23657ZM4.99219 8.36157C5.51172 8.36157 5.99805 8.26782 6.45117 8.08032C6.9082 7.89282 7.30859 7.62915 7.65234 7.28931C7.99609 6.94556 8.26562 6.54321 8.46094 6.08228C8.65625 5.61743 8.75391 5.10962 8.75391 4.55884C8.75391 4.0354 8.66016 3.54517 8.47266 3.08813C8.28906 2.6311 8.0293 2.22681 7.69336 1.87524C7.35742 1.52368 6.95898 1.25024 6.49805 1.05493C6.04102 0.855713 5.53906 0.756104 4.99219 0.756104C4.44531 0.756104 3.94141 0.849854 3.48047 1.03735C3.02344 1.22485 2.625 1.49048 2.28516 1.83423C1.94922 2.17407 1.6875 2.57642 1.5 3.04126C1.31641 3.5022 1.22461 4.00806 1.22461 4.55884C1.22461 5.08228 1.31641 5.57446 1.5 6.0354C1.68359 6.49243 1.94336 6.89673 2.2793 7.24829C2.61914 7.59595 3.01758 7.86938 3.47461 8.0686C3.93555 8.26392 4.44141 8.36157 4.99219 8.36157Z" fill="white"/>
</svg>

<svg width="10" height="9" fill="none" xmlns="http://www.w3.org/2000/svg"><path d="M4.992 8.96c-.637 0-1.224-.11-1.763-.329a4.257 4.257 0 0 1-1.4-.92 4.192 4.192 0 0 1-.92-1.394 4.705 4.705 0 0 1-.323-1.758c0-.637.11-1.223.328-1.758.219-.539.525-1.006.92-1.4a4.257 4.257 0 0 1 1.4-.92A4.63 4.63 0 0 1 4.992.153c.613 0 1.186.11 1.717.334a4.277 4.277 0 0 1 1.406.925c.403.395.717.86.944 1.395.226.535.34 1.119.34 1.752a4.63 4.63 0 0 1-.329 1.758A4.178 4.178 0 0 1 6.744 8.63a4.587 4.587 0 0 1-1.752.328Zm.188-1.723c-.79 0-1.383-.243-1.782-.727-.398-.488-.597-1.139-.597-1.951 0-.52.094-.979.281-1.377a2.21 2.21 0 0 1 .826-.943c.363-.23.803-.346 1.319-.346a3.32 3.32 0 0 1 1.482.357l-.328.68A2.835 2.835 0 0 0 5.8 2.7a2.042 2.042 0 0 0-.563-.082c-.496 0-.88.174-1.154.522-.273.344-.41.816-.41 1.418 0 .625.123 1.105.369 1.441.25.336.643.504 1.178.504.195 0 .404-.025.627-.076.226-.05.441-.117.644-.2v.716a3.949 3.949 0 0 1-.592.21 2.794 2.794 0 0 1-.72.083Zm-.188 1.125c.52 0 1.006-.094 1.46-.282a3.673 3.673 0 0 0 1.2-.79 3.767 3.767 0 0 0 1.102-2.731c0-.524-.094-1.014-.281-1.47a3.776 3.776 0 0 0-.78-1.214 3.548 3.548 0 0 0-1.195-.82A3.728 3.728 0 0 0 4.992.756c-.547 0-1.05.094-1.512.281A3.564 3.564 0 0 0 1.5 3.041c-.184.461-.275.967-.275 1.518 0 .523.091 1.015.275 1.476.184.457.443.862.78 1.213.34.348.738.621 1.195.82.46.196.966.294 1.517.294Z" fill="#fff"/></svg>
